X: 1
T: Upton-on-Severn Stick Dance
C: Trad
R: Rag Morris
M: 6/8
L: 1/8
K: Gmaj
Z: ABC transcription by Verge Roller
r: 32
|: d | "G" dBB BAG | "D" AGA "G" BGE | "G" DGG GBd | "Em" edB "D" A2 d |
"G" dBB BAG | "D" AGA "G" BGE | "G" DGG GAB | "D" AGF "G" G2 :|
|: G | "G" GBd g2 g | "Am" edc "G" BAG | "G" GBd g2 g | "Em" edB "D" A2 A |
"G" GBd g2 g | "Am" edc "Bm" Bcd | "C" ege "Bm" dBG | "D" AGF "G" G2 :|
W: The Morris formular is A.(AB)6, 
